Papirus/32x32/apps/kaku.svg

<svg xmlns="http://www.w3.org/2000/svg" width="32" height="32" version="1.1" viewBox="0 0 32 32">
 <rect style="opacity:0.2" width="28" height="28" x="-31" y="-30" rx="8.4" ry="8.4" transform="matrix(0,-1,-1,0,0,0)"/>
 <rect width="28" height="28" x="-30" y="-30" rx="8.4" ry="8.4" transform="matrix(0,-1,-1,0,0,0)" style="fill:#8f5066"/>
 <path style="fill:#ffffff;opacity:0.1" d="M 10.400391 2 C 5.7467908 2 2 5.7467908 2 10.400391 L 2 11.400391 C 2 6.7467908 5.7467908 3 10.400391 3 L 21.599609 3 C 26.253209 3 30 6.7467908 30 11.400391 L 30 10.400391 C 30 5.7467908 26.253209 2 21.599609 2 L 10.400391 2 z"/>
 <path d="m 22.426068,7 c -0.402398,0 -0.907554,0.066172 -1.123047,0.1464844 -0.919976,0.3428592 -1.634241,1.4068937 -2.042968,3.0449216 -0.657475,2.63491 -1.786401,3.810547 -3.66211,3.810547 -0.57302,0 -0.579373,0.11272 -0.03125,0.625 1.064199,0.994589 1.711409,2.485072 1.886719,4.345703 0.06892,0.731212 0.173251,1.056478 0.431641,1.359375 0.186429,0.218546 0.415325,0.394532 0.511718,0.394531 0.0964,0 0.283176,-0.322342 0.416016,-0.71875 0.178532,-0.532734 0.270122,-1.472578 0.351562,-3.603515 0.09442,-2.470665 0.155596,-2.996366 0.417969,-3.673828 0.671608,-1.734112 2.171906,-2.661716 3.701172,-1.976563 0.73426,0.328972 1.370028,1.285486 2.300781,2.914063 0.690294,1.207845 1.466113,2.11914 1.804688,2.11914 0.171035,0 0.173281,-0.234706 0.0039,-0.33789 -0.344002,-0.209728 -0.600857,-1.541982 -0.644531,-3.345703 -0.04372,-1.80484 -0.05911,-1.901702 -0.503906,-2.7617191 C 25.494764,7.8922841 24.037815,7 22.426068,7 Z m -9.93164,6.738281 c -0.133037,0.0012 -0.285596,0.01383 -0.47461,0.03125 -0.894091,0.08235 -1.33789,0.197913 -1.33789,0.351563 0,0.05021 0.552719,0.646324 1.228515,1.324218 1.344235,1.348397 1.988449,2.422479 2.28125,3.806641 0.119627,0.408836 0.134591,1.487821 0.158203,2.041016 -0.798691,0.417341 -1.349609,1.243457 -1.349609,2.207031 0,1.380713 1.119287,2.5 2.5,2.5 1.38071,0 2.5,-1.119287 2.5,-2.5 0,-0.883504 -0.460505,-1.654959 -1.152344,-2.099609 -0.106455,-0.563762 -0.18164,-1.579953 -0.18164,-1.900391 0,-2.300065 -1.201694,-4.418406 -3.078125,-5.425781 -0.475171,-0.255099 -0.694642,-0.339554 -1.09375,-0.335938 z M 9.5491152,14.65625 8.7913027,15.169922 c -1.1139099,0.756733 -2.1993151,1.985063 -2.7832031,3.15039 -0.4625721,0.923202 -0.5196044,1.161486 -0.5742187,2.369141 -0.037987,0.839826 -0.1443614,1.501404 -0.28125,1.767578 -0.2972109,0.577904 -0.1479579,1.121424 0.3398437,1.242188 0.205365,0.05084 0.6875001,0.41045 1.0742187,0.798828 1.294858,1.3004 3.7590307,1.834212 5.9589847,1.291015 0.569585,-0.140637 0.639051,-0.263748 0.302734,-0.539062 -0.120796,-0.09889 -0.379246,-0.489628 -0.574219,-0.869141 -0.666798,-1.297937 -0.417642,-2.913454 0.611328,-3.955078 0.466878,-0.472616 0.495119,-0.547549 0.414063,-1.130859 -0.04775,-0.343855 -0.24599,-0.936026 -0.441406,-1.316406 -0.39825,-0.775216 -2.075202,-2.586111 -2.808594,-3.033204 z M 8.0002871,21 c 0.5522847,0 1,0.447716 1,1 0,0.552286 -0.4477153,1 -1,1 -0.5522847,0 -1,-0.447714 -1,-1 0,-0.552284 0.4477153,-1 1,-1 z m 7.4999999,1 c 0.828426,0 1.5,0.671573 1.5,1.5 0,0.828427 -0.671574,1.5 -1.5,1.5 -0.828427,0 -1.5,-0.671573 -1.5,-1.5 0,-0.828427 0.671573,-1.5 1.5,-1.5 z" style="opacity:0.2"/>
 <path style="fill:#ffffff" d="m 22.426068,6 c -0.402398,0 -0.907554,0.066172 -1.123047,0.1464844 -0.919976,0.3428592 -1.634241,1.4068937 -2.042968,3.0449218 -0.657475,2.6349098 -1.786401,3.8105468 -3.66211,3.8105468 -0.57302,0 -0.579373,0.11272 -0.03125,0.625 1.064199,0.994589 1.711409,2.485072 1.886719,4.345703 0.06892,0.731212 0.173251,1.056478 0.431641,1.359375 0.186429,0.218546 0.415325,0.394532 0.511718,0.394531 0.0964,0 0.283176,-0.322342 0.416016,-0.71875 0.178532,-0.532734 0.270122,-1.472578 0.351562,-3.603515 0.09442,-2.470665 0.155596,-2.996366 0.417969,-3.673828 0.671608,-1.7341122 2.171906,-2.6617161 3.701172,-1.9765628 0.73426,0.3289718 1.370028,1.2854858 2.300781,2.9140628 0.690294,1.207845 1.466113,2.11914 1.804688,2.11914 0.171035,0 0.173281,-0.234706 0.0039,-0.33789 C 27.048863,14.239491 26.792008,12.907237 26.748334,11.103516 26.70461,9.2986764 26.689225,9.2018135 26.244428,8.3417969 25.494764,6.8922841 24.037815,6 22.426068,6 Z m -9.93164,6.738281 c -0.133037,0.0012 -0.285596,0.01383 -0.47461,0.03125 -0.894091,0.08235 -1.33789,0.197913 -1.33789,0.351563 0,0.05021 0.552719,0.646324 1.228515,1.324218 1.344235,1.348397 1.988449,2.422479 2.28125,3.806641 0.119627,0.408836 0.134591,1.487821 0.158203,2.041016 -0.798691,0.417341 -1.349609,1.243457 -1.349609,2.207031 0,1.380713 1.119287,2.5 2.5,2.5 1.38071,0 2.5,-1.119287 2.5,-2.5 0,-0.883504 -0.460505,-1.654959 -1.152344,-2.099609 -0.106455,-0.563762 -0.18164,-1.579953 -0.18164,-1.900391 0,-2.300065 -1.201694,-4.418406 -3.078125,-5.425781 -0.475171,-0.255099 -0.694642,-0.339554 -1.09375,-0.335938 z M 9.5491152,13.65625 8.7913027,14.169922 c -1.1139099,0.756733 -2.1993151,1.985063 -2.7832031,3.15039 -0.4625721,0.923202 -0.5196044,1.161486 -0.5742187,2.369141 -0.037987,0.839826 -0.1443614,1.501404 -0.28125,1.767578 -0.2972109,0.577904 -0.1479579,1.121424 0.3398437,1.242188 0.205365,0.05084 0.6875001,0.41045 1.0742187,0.798828 1.294858,1.3004 3.7590307,1.834212 5.9589847,1.291015 0.569585,-0.140637 0.639051,-0.263748 0.302734,-0.539062 -0.120796,-0.09889 -0.379246,-0.489628 -0.574219,-0.869141 -0.666798,-1.297937 -0.417642,-2.913454 0.611328,-3.955078 0.466878,-0.472616 0.495119,-0.547549 0.414063,-1.130859 -0.04775,-0.343855 -0.24599,-0.936026 -0.441406,-1.316406 -0.39825,-0.775216 -2.075202,-2.586111 -2.808594,-3.033204 z M 8.0002871,20 c 0.5522847,0 1,0.447716 1,1 0,0.552286 -0.4477153,1 -1,1 -0.5522847,0 -1,-0.447714 -1,-1 0,-0.552284 0.4477153,-1 1,-1 z m 7.4999999,1 c 0.828426,0 1.5,0.671573 1.5,1.5 0,0.828427 -0.671574,1.5 -1.5,1.5 -0.828427,0 -1.5,-0.671573 -1.5,-1.5 0,-0.828427 0.671573,-1.5 1.5,-1.5 z"/>
</svg>

<svg xmlns="http://www.w3.org/2000/svg" width="32" height="32" version="1.1" viewBox="0 0 32 32">
 <path d="M 30,22.600001 V 11.399999 C 30,6.7464 26.2536,3 21.600001,3 h -11.2 C 5.7464,3 2,6.7464 2,11.399999 V 22.600001 C 2,27.2536 5.7464,31 10.400001,31 h 11.2 C 26.2536,31 30,27.2536 30,22.600001 Z" style="opacity:0.2"/>
 <path style="fill:#4d4d4d" d="M 29.65,21.460001 V 10.539999 c 0,-4.5372592 -3.65274,-8.1899992 -8.19,-8.1899992 H 10.54 c -4.5372602,0 -8.1900002,3.65274 -8.1900002,8.1899992 v 10.920002 c 0,4.537259 3.65274,8.189999 8.1900002,8.189999 h 10.92 c 4.53726,0 8.19,-3.65274 8.19,-8.189999 z"/>
 <g transform="matrix(0.20487902,0,0,0.20487902,1.9999999,1.9999999)">
  <path d="m 122.60742,10.060547 0.94141,18.425781 6.67578,-9.595703 c -2.10916,-3.298828 -4.67727,-6.270196 -7.61719,-8.830078 z" style="fill:#612e18"/>
  <path d="M 104.39844,0.93359375 76.03125,21.814453 123.54883,28.486328 122.60742,10.060547 C 117.5,5.6133569 111.27783,2.4152348 104.39844,0.93359375 Z" style="fill:#5c312d"/>
  <path d="M 80.095703,0 76.03125,21.814453 104.39844,0.93359375 C 101.58517,0.32768866 98.665656,0 95.666016,0 Z" style="fill:#37232c"/>
  <path d="M 47.335938,0 76.03125,21.814453 80.095703,0 Z" style="fill:#3e2941"/>
  <path d="M 46.017578,0 54.271484,40.160156 76.03125,21.814453 47.335938,0 Z" style="fill:#58405b"/>
  <path d="M 45.341797,0 30.732422,40.164062 54.271484,40.160156 46.017578,0 Z" style="fill:#6d5174"/>
  <path d="M 44.050781,0 15.511719,19.683594 30.732422,40.164062 45.341797,0 Z" style="fill:#5d4e75"/>
  <path d="m 15.511719,19.683594 -14.67382838,13 C 0.37019144,34.971025 0.10332347,37.332529 0.03125,39.744141 l 30.701172,0.419921 z" style="fill:#665f88"/>
  <path d="M 15.511719,19.683594 5.0507812,21.220703 C 3.1095404,24.754025 1.6717061,28.605554 0.83789062,32.683594 Z" style="fill:#4c5378"/>
  <path d="M 41,0 C 31.239168,0 22.301107,3.3832276 15.275391,9.0371094 L 15.511719,19.683594 44.050781,0 Z" style="fill:#312c47"/>
  <path d="M 15.275391,9.0371094 C 13.048686,10.82903 11.013522,12.846177 9.2070312,15.060547 l 6.3046878,4.623047 z" style="fill:#3c3c5c"/>
  <path d="m 9.2070312,15.060547 c -1.5631242,1.916055 -2.9566394,3.976702 -4.15625,6.160156 L 15.511719,19.683594 Z" style="fill:#454669"/>
  <path d="m 130.22461,18.890625 -6.67578,9.595703 9.91211,35.791016 3.20508,-21.761719 V 41 c 0,-8.157004 -2.3667,-15.736309 -6.44141,-22.109375 z" style="fill:#6e2d34"/>
  <path d="m 136.66602,42.515625 -3.20508,21.761719 3.20508,4.86914 z" style="fill:#90131b"/>
  <path d="m 133.46094,64.277344 -20.72266,25.060547 23.92774,-5.56836 V 69.146484 Z" style="fill:#711c21"/>
  <path d="m 136.66602,83.769531 -23.92774,5.56836 20.27734,23.291019 c 2.33902,-5.16555 3.6504,-10.90427 3.6504,-16.962894 z" style="fill:#3a0e0c"/>
  <path d="m 112.73828,89.337891 3.65625,38.490229 4.56836,0.13672 c 5.15949,-4.04043 9.31525,-9.29041 12.05273,-15.33593 z" style="fill:#5b180c"/>
  <path d="m 116.39453,127.82812 0.0117,3.23633 c 1.59148,-0.93149 3.11262,-1.96878 4.55664,-3.09961 z" style="fill:#3e0c05"/>
  <path d="m 102.95898,119.51367 7.00782,14.60547 c 2.24892,-0.83209 4.39836,-1.86003 6.43945,-3.05469 l -0.0117,-3.23633 z" style="fill:#81210f"/>
  <path d="m 102.95898,119.51367 -17.550777,17.15235 h 10.257813 c 5.034914,0 9.851954,-0.90083 14.300784,-2.54688 z" style="fill:#af5246"/>
  <path d="M 102.95898,119.51367 63.6875,136.3125 63.320312,136.66602 H 85.408203 Z" style="fill:#c98173"/>
  <path d="M 81.421875,89.322266 63.6875,136.3125 102.95898,119.51367 Z" style="fill:#e1816d"/>
  <path d="M 50.386302,98.461191 63.6875,136.3125 81.421875,89.322266 Z" style="fill:#eeb9bd"/>
  <path style="fill:#ddb0d9" d="M 50.386302,98.461191 38.722589,110.77557 63.6875,136.3125 Z"/>
  <path d="m 38.722656,110.77539 -3.919922,25.42773 c 2.020528,0.30389 4.089396,0.4629 6.197266,0.4629 H 63.320312 L 63.6875,136.3125 Z" style="fill:#ebc3e2"/>
  <path d="m 5.015625,109.51367 25.199219,25.72071 c 1.497638,0.40462 3.026358,0.7339 4.58789,0.96874 l 3.919922,-25.42773 z" style="fill:#a576cf"/>
  <path d="m 5.015625,109.51367 0.796875,7.25586 c 5.368171,8.95946 14.062853,15.6714 24.402344,18.46485 z" style="fill:#b77abf"/>
  <path d="m 5.015625,109.51367 -2.3203125,0.82422 c 0.8562557,2.24624 1.8980748,4.39695 3.1171875,6.43164 z" style="fill:#ab5ca1"/>
  <path d="m 1.9355469,108.17773 c 0.2321156,0.72975 0.48868,1.44901 0.7597656,2.16016 l 2.3203125,-0.82422 z" style="fill:#b88ecc"/>
  <path d="m 5.015625,109.51367 33.707031,1.26172 -6.905035,-40.181672 z" style="fill:#b88ecc"/>
  <path d="m 0,90.679688 v 4.986328 c 0,4.367744 0.6817751,8.569974 1.9355469,12.511714 l 3.0800781,1.33594 z" style="fill:#9550b5"/>
  <path d="M 19.013672,62.308594 0,65.751953 v 24.927735 l 5.015625,18.833982 z" style="fill:#9165a8"/>
  <path d="M 5.015625,109.51367 31.817621,70.593718 19.013672,62.308594 Z" style="fill:#9d5cba"/>
  <path style="fill:#836492" d="M 30.733074,40.164956 42.004843,57.425021 19.013672,62.308594 Z"/>
  <path d="M 0,54.759766 V 65.751953 L 19.013672,62.308594 Z" style="fill:#826f9e"/>
  <path d="M 30.732422,40.164062 0,54.255859 v 0.503907 l 19.013672,7.548828 z" style="fill:#665e89"/>
  <path d="M 0.03125,39.744141 C 0.01874889,40.162434 0,40.57857 0,41 V 54.255859 L 30.732422,40.164062 Z" style="fill:#5f577f"/>
  <path style="fill:#846288" d="M 30.733074,40.164956 42.004843,57.425021 54.271484,40.160156 Z"/>
  <path d="M 76.031369,21.814712 78.367136,60.646829 54.271484,40.160156 Z" style="fill:#825a67"/>
  <path style="fill:#97605e" d="m 76.03125,21.814453 2.335886,38.832376 24.564264,4.169577 z"/>
  <path d="M 102.9314,64.816406 76.031369,21.814712 123.54798,28.485639 Z" style="fill:#874645"/>
  <path d="M 123.54798,28.485639 102.9314,64.816406 133.46094,64.277344 Z" style="fill:#8d2635"/>
  <path style="fill:#943837" d="M 112.73828,89.337891 102.9314,64.816406 133.46094,64.277344 Z"/>
  <path style="fill:#a45c50" d="m 102.9314,64.816406 9.80688,24.521485 -31.316405,-0.01563 z"/>
  <path d="M 102.95898,119.51367 81.421875,89.322266 112.73828,89.337891 Z" style="fill:#ab4c39"/>
  <path style="fill:#963b20" d="m 112.73828,89.337891 -9.7793,30.175779 13.4362,8.31543 z"/>
  <path style="fill:#b86d5f" d="M 81.421875,89.322266 78.367136,60.646829 102.9314,64.816406 Z"/>
  <path d="M 31.817621,70.593718 19.013672,62.308594 42.004843,57.425021 Z" style="fill:#997599"/>
  <path d="M 54.271484,40.160156 60.433764,70.996863 42.004843,57.425021 Z" style="fill:#936982"/>
  <path d="M 31.817621,70.593718 42.004843,57.425021 60.433764,70.996863 Z" style="fill:#856385"/>
  <path style="fill:#c38e97" d="M 50.386302,98.461191 31.817621,70.593718 81.421875,89.322266 Z"/>
  <path style="fill:#b37b96" d="M 81.421875,89.322261 60.433764,70.996863 31.817621,70.593718 Z"/>
  <path d="M 60.433764,70.996863 54.271484,40.160156 78.367136,60.646829 Z" style="fill:#9c6c71"/>
  <path d="M 60.433764,70.996863 78.367136,60.646829 81.421875,89.322266 Z" style="fill:#e5a98e"/>
  <path d="M 31.817621,70.593718 38.722589,110.77557 50.386302,98.461191 Z" style="fill:#b48dd7"/>
 </g>
 <path d="m 22.425781,7 c -0.402398,0 -0.907554,0.066172 -1.123047,0.1464844 -0.919976,0.3428592 -1.634241,1.4068937 -2.042968,3.0449216 -0.657475,2.63491 -1.786401,3.810547 -3.66211,3.810547 -0.57302,0 -0.579373,0.11272 -0.03125,0.625 1.064199,0.994589 1.711409,2.485072 1.886719,4.345703 0.06892,0.731212 0.173251,1.056478 0.431641,1.359375 0.186429,0.218546 0.415325,0.394532 0.511718,0.394531 0.0964,0 0.283176,-0.322342 0.416016,-0.71875 0.178532,-0.532734 0.270122,-1.472578 0.351562,-3.603515 0.09442,-2.470665 0.155596,-2.996366 0.417969,-3.673828 0.671608,-1.734112 2.171906,-2.661716 3.701172,-1.976563 0.73426,0.328972 1.370028,1.285486 2.300781,2.914063 0.690294,1.207845 1.466113,2.11914 1.804688,2.11914 0.171035,0 0.173281,-0.234706 0.0039,-0.33789 -0.344002,-0.209728 -0.600857,-1.541982 -0.644531,-3.345703 -0.04372,-1.80484 -0.05911,-1.901702 -0.503906,-2.7617191 C 25.494477,7.8922841 24.037528,7 22.425781,7 Z m -9.93164,6.738281 c -0.133037,0.0012 -0.285596,0.01383 -0.47461,0.03125 -0.894091,0.08235 -1.33789,0.197913 -1.33789,0.351563 0,0.05021 0.552719,0.646324 1.228515,1.324218 1.344235,1.348397 1.988449,2.422479 2.28125,3.806641 0.119627,0.408836 0.134591,1.487821 0.158203,2.041016 C 13.550918,21.71031 13,22.536426 13,23.5 c 0,1.380713 1.119287,2.5 2.5,2.5 1.38071,0 2.5,-1.119287 2.5,-2.5 0,-0.883504 -0.460505,-1.654959 -1.152344,-2.099609 -0.106455,-0.563762 -0.18164,-1.579953 -0.18164,-1.900391 0,-2.300065 -1.201694,-4.418406 -3.078125,-5.425781 -0.475171,-0.255099 -0.694642,-0.339554 -1.09375,-0.335938 z M 9.5488281,14.65625 8.7910156,15.169922 c -1.1139099,0.756733 -2.1993151,1.985063 -2.7832031,3.15039 -0.4625721,0.923202 -0.5196044,1.161486 -0.5742187,2.369141 -0.037987,0.839826 -0.1443614,1.501404 -0.28125,1.767578 -0.2972109,0.577904 -0.1479579,1.121424 0.3398437,1.242188 0.205365,0.05084 0.6875001,0.41045 1.0742187,0.798828 1.294858,1.3004 3.7590308,1.834212 5.9589848,1.291015 0.569585,-0.140637 0.639051,-0.263748 0.302734,-0.539062 -0.120796,-0.09889 -0.379246,-0.489628 -0.574219,-0.869141 -0.666798,-1.297937 -0.417642,-2.913454 0.611328,-3.955078 0.466878,-0.472616 0.495119,-0.547549 0.414063,-1.130859 -0.04775,-0.343855 -0.24599,-0.936026 -0.441406,-1.316406 -0.39825,-0.775216 -2.075202,-2.586111 -2.808594,-3.033204 z M 8,21 c 0.5522847,0 1,0.447716 1,1 0,0.552286 -0.4477153,1 -1,1 -0.5522847,0 -1,-0.447714 -1,-1 0,-0.552284 0.4477153,-1 1,-1 z m 7.5,1 C 16.328426,22 17,22.671573 17,23.5 17,24.328427 16.328426,25 15.5,25 14.671573,25 14,24.328427 14,23.5 14,22.671573 14.671573,22 15.5,22 Z" style="opacity:0.2"/>
 <path style="fill:#ffffff" d="M 22.425781 6 C 22.023383 6 21.518227 6.0661721 21.302734 6.1464844 C 20.382758 6.4893436 19.668493 7.5533781 19.259766 9.1914062 C 18.602291 11.826316 17.473365 13.001953 15.597656 13.001953 C 15.024636 13.001953 15.018283 13.114673 15.566406 13.626953 C 16.630605 14.621542 17.277815 16.112025 17.453125 17.972656 C 17.522045 18.703868 17.626376 19.029134 17.884766 19.332031 C 18.071195 19.550577 18.300091 19.726563 18.396484 19.726562 C 18.492884 19.726562 18.67966 19.40422 18.8125 19.007812 C 18.991032 18.475078 19.082622 17.535234 19.164062 15.404297 C 19.258482 12.933632 19.319658 12.407931 19.582031 11.730469 C 20.253639 9.9963568 21.753937 9.0687529 23.283203 9.7539062 C 24.017463 10.082878 24.653231 11.039392 25.583984 12.667969 C 26.274278 13.875814 27.050097 14.787109 27.388672 14.787109 C 27.559707 14.787109 27.561953 14.552403 27.392578 14.449219 C 27.048576 14.239491 26.791721 12.907237 26.748047 11.103516 C 26.704323 9.2986764 26.688938 9.2018135 26.244141 8.3417969 C 25.494477 6.8922841 24.037528 6 22.425781 6 z M 12.494141 12.738281 C 12.361104 12.739481 12.208545 12.752111 12.019531 12.769531 C 11.12544 12.851881 10.681641 12.967444 10.681641 13.121094 C 10.681641 13.171304 11.23436 13.767418 11.910156 14.445312 C 13.254391 15.793709 13.898605 16.867791 14.191406 18.251953 C 14.311033 18.660789 14.325997 19.739774 14.349609 20.292969 C 13.550918 20.71031 13 21.536426 13 22.5 C 13 23.880713 14.119287 25 15.5 25 C 16.88071 25 18 23.880713 18 22.5 C 18 21.616496 17.539495 20.845041 16.847656 20.400391 C 16.741201 19.836629 16.666016 18.820438 16.666016 18.5 C 16.666016 16.199935 15.464322 14.081594 13.587891 13.074219 C 13.11272 12.81912 12.893249 12.734665 12.494141 12.738281 z M 9.5488281 13.65625 L 8.7910156 14.169922 C 7.6771057 14.926655 6.5917005 16.154985 6.0078125 17.320312 C 5.5452404 18.243514 5.4882081 18.481798 5.4335938 19.689453 C 5.3956067 20.529279 5.2892324 21.190857 5.1523438 21.457031 C 4.8551329 22.034935 5.0043859 22.578455 5.4921875 22.699219 C 5.6975525 22.750059 6.1796876 23.109669 6.5664062 23.498047 C 7.8612642 24.798447 10.325437 25.332259 12.525391 24.789062 C 13.094976 24.648425 13.164442 24.525314 12.828125 24.25 C 12.707329 24.15111 12.448879 23.760372 12.253906 23.380859 C 11.587108 22.082922 11.836264 20.467405 12.865234 19.425781 C 13.332112 18.953165 13.360353 18.878232 13.279297 18.294922 C 13.231547 17.951067 13.033307 17.358896 12.837891 16.978516 C 12.439641 16.2033 10.762689 14.392405 10.029297 13.945312 L 9.5488281 13.65625 z M 8 20 C 8.5522847 20 9 20.447716 9 21 C 9 21.552286 8.5522847 22 8 22 C 7.4477153 22 7 21.552286 7 21 C 7 20.447716 7.4477153 20 8 20 z M 15.5 21 C 16.328426 21 17 21.671573 17 22.5 C 17 23.328427 16.328426 24 15.5 24 C 14.671573 24 14 23.328427 14 22.5 C 14 21.671573 14.671573 21 15.5 21 z"/>
 <path style="opacity:0.1;fill:#ffffff" d="M 10.400391 2 C 5.7467896 2 2 5.7467916 2 10.400391 L 2 11.400391 C 2 6.7467916 5.7467896 3 10.400391 3 L 21.599609 3 C 26.253208 3 30 6.7467916 30 11.400391 L 30 10.400391 C 30 5.7467916 26.253208 2 21.599609 2 L 10.400391 2 z"/>
</svg>
